!!!OTL: Abschied von Insbruck. /  Vom christlichen Abschied aus dieser Welt. (1555.)
!!!ARE: Europa, Mitteleuropa, Deutschland
!!!SCT: A0254B
!!!TXL: @@GMH
!!!YEM: Copyright 1995, estate of Helmut Schaffrath.
**kern	**text
!! Mixed meters:  6/4; 4/4
*M6/4	*
*met(c|)	*
*k[b-]	*
*F:	*
!LO:TX:a:t=P	!
{2f	O
=1	=1
2f	Welt,
4g	ich
2a	muß
4cc	dich
=2	=2
2b-	laſ-
2a	-ſen,
4r}	.
{4a	ich
=3	=3
2cc	fahr
4cc	da-
2g	-hin
4a	mein
=4	=4
2f	Straßen
2e	.
4r}	.
{4f	ins
=5	=5
*M4/4	*
4g	e-
4a	-wig
4b-/	Va-
4a	-ter-
=6	=6
2g	-land,
4r}	.
{4a	mein
=7	=7
*M6/4	*
2f	Geiſt
4g	muß
2a	ich
4cc	auf-
=8	=8
2b-	-ge-
2a	-ben,
4r}	.
{4a	dar-
=9	=9
2cc	-ʒu
4cc	mein
2g	Leib
4a	und
=10	=10
2f	Le-
2e	-ben
4r}	.
{4c	ſe-
=11	=11
*M4/4	*
2f	-tʒen
2g	in
=12	=12
2a	Got-
2b-/	-tes
=13	=13
2a	gnä-
2g	-dig
=14	=14
*M6/2	*
!LO:TX:a:t=P:one note in the source:problem	!
!LO:N:vis=1	!
[0f	Hand.
2fyy]}	.
==	==
!!!GTL: Abschieds- und Wanderlieder
!!!AGN: Romanze, Ballade, Lied
!!!ONB: ESAC (Essen Associative Code) Database: ALTDEU
!!!AMT: irregular
!!!AIN: vox
!!!EED: Helmut Schaffrath
!!!EEV: 1.0
!!!URL-scan: https://rosdok.uni-rostock.de/mcrviewer/recordIdentifier/rosdok_ppn738218359/iview2/phys_0405.iview2?x=-495.6391625615763&y=1608.8413793162908&scale=0.4629418472063854&rotation=0&layout=singlePageLayout&logicalDiv=log_0010
!!!ENC: Anna Maria Matuszewska
!!!EEV: 2024/11/03
*-	*-
